X: 39486
T: Tatter Jack Walsh
R: jig
M: 6/8
K: Dmixolydian
|:~f3 ded|cAB ~c2 A|dcA ~G3|Add efg|
~f3 ded|cAB ~c2 A|dcA ~G3|1 Ad^c dag:|2 Ad^c dBA||
|:dfa dfa|dfa agf|~g3 ged|^cde ~g3|
afd fed|cAB ~c2 A|dcA ~G3|1 Ad^c dBA:|2 Ad^c dag||

